data/sheikah/s.svg

<!-- Generated by IcoMoon.io -->
<svg version="1.1" xmlns="http://www.w3.org/2000/svg" width="1024" height="1024" viewBox="0 0 1024 1024">
<title></title>
<g id="icomoon-ignore">
</g>
<path d="M352.5 352.5h319v119.5h-319v-119.5zM352.5 552h319v119.5h-319v-119.5zM472 153.5v119.5h-199v478h199v119.5h-199l-119.5-119.5v-478l119.5-119.5h199zM552 153.5v119.5h199v478h-199v119.5h199l119.5-119.5v-478l-119.5-119.5h-199z"></path>
</svg>

<svg xmlns="http://www.w3.org/2000/svg" width="1024" height="1024" viewBox="0 0 1024 1024">
  <title/>
  <path d="M352.5 352.5h319V472h-319zm0 199.5h319v119.5h-319zM472 153.5V273H273v478h199v119.5H273L153.5 751V273L273 153.5zm80 0V273h199v478H552v119.5h199L870.5 751V273L751 153.5z"/>
</svg>
